/* XPM */
static char * cup_xpm[] = {
"64 64 15 1",
" 	c #473D25",
".	c #6A5C52",
"+	c #825B24",
"@	c #2E2E2E",
"#	c #907D50",
"$	c #928276",
"%	c #867F7F",
"&	c #302524",
"*	c #776454",
"=	c #514239",
"-	c #42312C",
";	c #6A6512",
">	c #161616",
",	c #FFF568",
"'	c #ADA100",
"  ...   ......... .++++.+++..@@   ...   ......... .++++.+++..@@ ",
" ..+++.  +++++++ .+.+.++++.+ ......+++.  +++++++ .+.+.++++.+ ...",
" +.++.+.      @@.+++...++.++ ++.++.++.+.      @@.+++...++.++ ++.",
" ...++#+ .      @#+++.++.+++ ++++...++#+ .      @#+++.++.+++ +++",
" +.++## .......  #+.#++#++$+ +.+++.++## .......  #+.#++#++$+ +.+",
" #++.% ...+++... #%###.###%# #%+.#++.% ...+++... #%###.###%# #%+",
" ###%# .+.+.+++.. #%%%%%%%# . #%####%# .+.+.+++.. #%%%%%%%# . #%",
" %%%# ..++++.++++. ####### ... #%%%%# ..++++.++++. ####### ... #",
" ### ..++.++++.##..    @@ .++.. #### ..++.++++.##..    @@ .++.. ",
"    .+#+...+####%+ .... @ ++.+..@   .+#+...+####%+ .... @ ++.+..",
" ...  #%%#%%%%%%# ..++#.  #%+%# ....  #%%#%%%%%%# ..++#.  #%+%# ",
" +.... ######### .++#.# .. #%# ..+.... ######### .++#.# .. #%# .",
" +.++..@@       ..+.#% .... #@..++.++..@@       ..+.#% .... #@..",
" ...+++@... ..   ##%% ..++..@@+++...+++@... ..   ##%% ..++..@@++",
" +.++++ .++++++..  @@..+.++..@+.++.++++ .++++++..  @@..+.++..@+.",
" +#+.+# ++.+.++++...@++++.++. +#++#+.+# ++.+.++++...@++++.++. +#",
" .%#+#% #++++++.++++ +.+++.++. %#.%#+#% #++++++.++++ +.+++.++. %",
" ###%%   #+.++...+#% #%.+++%#+.@####%%   #+.++...+#% #%.+++%#+.@",
" %%%# .. %#+##+.##%#@##%%+%#  @@%%%%# .. %#+##+.##%#@##%%+%#  @@",
" +   .++ #%%%%%%%%#@@@  #%# .... +   .++ #%%%%%%%%#@@@  #%# ....",
"  ... #+  ######## ..... # ...... ... #+  ######## ..... # .....",
" .....         @@@.&&&&.. ..++.. ..... &&&&    @@@..+++.. ..++..",
" ..+..  ........ @.&**&+. ++$++. ..+.. &**&..... @.+++.+. ++$++.",
" +++++ ..++++++.. .&&&&++ +####. +++++ &&&&++++.. .+.++++ +####.",
"  #++++ .++.+.++. .&=-&&&&&&&&&&&&&&&&&&=-&.+.++. ..++.+. +.+++.",
"  %###% .+.+...+. .&&&&===*==***=****==&&&&+...+. .+.+.++ ++++.+",
" . %%% ..++++.++. +&*-&&&&&&&&&&&&&&&&&&*-&++.++. +++++++ #.+.++",
" ..@@@..++..++.+. %&*-&----------------&*-&.++.+. %#+#+#% %#+++.",
" +..@..+++++++++. #&*-&--;;;---;;;;;---&*-&>++++. #%%%%%# #%+.++",
" +%+ ++#++++..+#+ @&*-&-;,,,;;;,,,'';--&*-&>..+#+ @##### . #%+.+",
" %#   +%#%#++++##+.&*-&-;,,''';,,,'';--&*-&>+++##+.@    ... #%%%",
" #     #%#######%+ &*-&-;'''';-;''';;;-&*-&>####%+ ......... ###",
"  ...   #%%%%%%%# .&&&&-;;-;;-;;;;;,,';&&&&>%%%%# .++++.+++..@@ ",
" ..+++.  +++++++ .+&**&;,,;--;,,';-,,';&**&>++++ .+.+.++++.+ ...",
" +.++.+.      @@.++&&&&;'';-;,'';;-''';&&&&>  @@.+++...++.++ ++.",
" ...++#+ .      @#+&=-&&&&&&&&&&&&&&&&&&=-&>    @#+++.++.+++ +++",
" +.++## .......  #+&=-&===*==***=****==&=-&>...  #+.#++#++$+ +.+",
" #++.% ...+++... #%&=-&&&&&&&&&&&&&&&&&&=-&>+... #%###.###%# #%+",
" ###%# .+.+.+++.. #&=-&-===============&=-&>+++.. #%%%%%%%# . #%",
" %%%# ..++++.++++. &=-&-===============&=-&>.++++. ####### ... #",
" ### ..++.++++.##..&=-&----------------&=-&>++.##..    @@ .++.. ",
"    .+#+...+####%+ &=-&-===============&=-&>####%+ .... @ ++.+..",
" ...  #%%#%%%%%%# .&=-&-===============&=-&>%%%%# ..++#.  #%+%# ",
" +.... ######### .+&=-&----------------&=-&>#### .++#.# .. #%# .",
" +.++..@@       ..+&=-&-===============&=-&>    ..+.#% .... #@..",
" ...+++@... ..   ##&=-&-===============&=-&>..   ##%% ..++..@@++",
" +.++++ .++++++..  >>>>>>>>>>>>>>>>>>>>>>>>>+++..  @@..+.++..@+.",
" +#+.+# ++.+.++++...@++++.++. +#++#+.+# ++.+.++++...@++++.++. +#",
" .%#+#% #++++++.++++ +.+++.++. %#.%#+#% #++++++.++++ +.+++.++. %",
" ###%%   #+.++...+#% #%.+++%#+.@####%%   #+.++...+#% #%.+++%#+.@",
" %%%# .. %#+##+.##%#@##%%+%#  @@%%%%# .. %#+##+.##%#@##%%+%#  @@",
" +   .++ #%%%%%%%%#@@@  #%# .... +   .++ #%%%%%%%%#@@@  #%# ....",
"  ... #+  ######## ..... # ...... ... #+  ######## ..... # .....",
" .....         @@@..+++.. ..++.. .....         @@@..+++.. ..++..",
" ..+..  ........ @.+++.+. ++$++. ..+..  ........ @.+++.+. ++$++.",
" +++++ ..++++++.. .+.++++ +####. +++++ ..++++++.. .+.++++ +####.",
"  #++++ .++.+.++. ..++.+. +.+++.. #++++ .++.+.++. ..++.+. +.+++.",
"  %###% .+.+...+. .+.+.++ ++++.+. %###% .+.+...+. .+.+.++ ++++.+",
" . %%% ..++++.++. +++++++ #.+.++.. %%% ..++++.++. +++++++ #.+.++",
" ..@@@..++..++.+. %#+#+#% %#+++.+..@@@..++..++.+. %#+#+#% %#+++.",
" +..@..+++++++++. #%%%%%# #%+.++++..@..+++++++++. #%%%%%# #%+.++",
" +%+ ++#++++..+#+ @##### . #%+.+.+%+ ++#++++..+#+ @##### . #%+.+",
" %#   +%#%#++++##+.@    ... #%%%%%#   +%#%#++++##+.@    ... #%%%",
" #     #%#######%+ ......... #####     #%#######%+ ......... ###"};
