/* XPM */
static char * exit_xpm[] = {
"64 64 32 1",
" 	c #807870",
".	c #68544F",
"+	c #40363A",
"@	c #2B1F24",
"#	c #54483C",
"$	c #1F1B1B",
"%	c #7F776F",
"&	c #5B564C",
"*	c #6A5650",
"=	c #413B3B",
"-	c #58544C",
";	c #62523E",
">	c #675B4B",
",	c #665349",
"'	c #453B3A",
")	c #110F0F",
"!	c #7B7361",
"~	c #564642",
"{	c #201C1B",
"]	c #342F2F",
"^	c #202020",
"/	c #2C2827",
"(	c #201C1C",
"_	c #363232",
":	c #473D25",
"<	c #757D54",
"[	c #6A5C52",
"}	c #3B3737",
"|	c #825B24",
"1	c #907D50",
"2	c #363626",
"3	c #FFFFFF",
" ..... + ..... + ..... + ..... + ..... + ..... @ ..... + ..... @",
"...#.. +...... +...#.. +...... +...... +...... +...... +...... +",
" ......+ ..#.. + ......+ ..#.. + ......+ ..... + ......+ ..... +",
" ..##. +.......+ ..##. +.......+ .##.. +.......+ .##.. +.......+",
"...... +...#...+...... +...#...+...... +...#...+...... +...#...+",
".......@+......@.......@+......@.......@+......+.......@+......+",
"+@+++++@+++++++@+@+++++@+++++++@@$$$+++++++++++@@++@+++++++++++@",
"   +  . .  +   .   +  . .  +%$$$$$&$$$* ++ @   .   +  . ++ @   .",
".. + ..... + ..... + .....$$$$  $&&  $$$.. + ..... + ..... + ...",
".. + ...#. + ..... + ...#$$=-== $$&&   $;. @ ..... + ..... @ ...",
".. +.......+ ..... +....>$==---  $&&&  $$$.+ ..... +..##...+ ...",
"...@...... +.......@...$$$===--- $=&&&$$- $+.......+...#.. +....",
".. @...... @ ..... @..$$-$$===--$===&$$-- $$ ..... @...... + ...",
"...+.......@+......+.,$=-  $==-$$$===$---  $+......+.......@+...",
"@@@+++++++@@++++@@@+'$$==- $$$$$)$$$$$==--$$$+'@++@+++++++@@+++@",
"    .  @  . .  @    $$&$==-$)))))))))$===$$ $$'@    .  +  . .  @",
" ..... + ..... + ..$$&!!$=$$))))))))))$$$$-- $$@ ..... + ..... @",
"...##. +...... +..~$&&&!!$))))))))))))))$=--- $+...... +...... +",
" ..##..+ ..... + .${==--$$))))))))))))))$===-  $ ##....+ ..... +",
" ..... +...#...+ .$-$==$$)))))))))))))))$===-- $ .#... @.......+",
"...... +.......+.$- {$$$))))))))))))))))$$$$$$$]...... +....#..+",
".......@+......+$$--  $)))))))))))))))))))$-   -.......@+......@",
"@+@++++@++++++@+$==---$))))))))))^^)))))))$=-   ++++++++++++++@@",
"   @  . .  @   .$====$$)))))))))^^^^))))))$----    @  . .  @   .",
".. + ..... + .../($$$$)))))^^^^)))))))))))$===--.. + ..... + ...",
".. + ..... + ...]- -$)))))))^^^))^^))))))))$===-.. + ...#. + ...",
".. +...##..+ .../=- $)))))^^)))^^)))))))))))$$/]#. +.......+ ...",
"...+....#. +..../==-$)))))^^)^^^^^)))))))))$$-  #..+..#... +....",
".. +.#.... + ...]/$$$))^^^^)^^^^^^))^^^))))$=-- .. +...... @ ...",
"...@.......@+.../-  $))^^^^)^^^^^^))^^^^)))$==- ...@.......@+...",
"@++@+++++++++++@/-- $))^^^^))^^^^^))^^^^)))$$==-@++++++++++@++++",
"    .  @  . .  +/=--$))))^^)))^_^^)))^^^))))$$/]    .  +  . .  @",
" ..... + ..... +]==$)))))))))))))))))))))))$--   ..... + ..... @",
"...#.. +...... +]/$$$^^^_____^^))^^^^^^)^))$=-- ...... +...... +",
" ......+ ..#.. +--  $^^^_____^^^)^^_^^^^^^)$===- ......+ ..... +",
" ..##. +.......+==- $^^________^)^___^))^^))$$/] .##.. +.......+",
"...... +...#...+===-$^^________^)^___^)@^^))$-- ...... +...#...+",
".......@+......@]/$$^^)))_____)))))))^^^))))$=- .......@+......+",
"+@+++++@+++++++@-  $^^^^))))))^^^^^)^^__^^^)$=- @++@+++++++++++@",
"   +  . .  +   .-- $^^___^^^^^____^^______^^$==-   +  . ++ @   .",
".. + ..... + ...-- $^_____^^^_____^^______^^$==-.. + ..... + ...",
".. + ...#. + ...==-$^______^^^____^^_______^$$/].. + ..... @ ...",
".. +.......+ ...===$^_____^^^^____^^^_____^^$-  .. +..##...+ ...",
"...@...... +....]/$$_^^^^^^^^^^^^^^^^^^^^^^^$=- ...+...#.. +....",
".. @...... @ ...  -$__^^_____^^^^___^^___^^^$=--.. @...... + ...",
"...+.......@+...-  $___^_______^____^_____^^$===...+.......@+...",
"@@@+++++++@@++++=- $___^_:::::_^_:::^_::::_^$$]]++@+++++++@@+++@",
"    .  @  . .  @==<$____::::::___:::__:::::^$-      .  +  . .  @",
" ..... + ..... +]/$$_____________________+__$-   ..... + ..... @",
"...##. +...... +-  $___::::_::::____:_____==$---...... +...... +",
" ..##..+ ..... +-- $__:::::_[[[[:::_[:::_=_}$==- ##....+ ..... +",
" ..... +...#...+==-$__:[[[[_[[[[[|:_[[|:_=__$=== .#... @.......+",
"...... +.......+===$__[||[:+||[[[|:+[[|:+#__$$/]...... +....#..+",
".......@+......+]/$$__||||:@+|||||:+|||:+___$  -.......@+......@",
"@+@++++@++++++@+- -$:::::::::::+::::+::::::+$-- ++++++++++++++@@",
"   @  . .  @   .=- $:::@1[[1[1:::1[[::1[[1::$=-2   @  . .  @   .",
".. + ..... + ...==-$[[::[[[[[[1:1|[[:1[[[[[1$==-.. + ..... + ...",
"@@@@@@@@@@@@@@@@]/$$|[::[[|||[1:1[[[:1[[[|[1$$/]@@@@@@@@@@@@@@@@",
" @.. @..... @...  -$||1:[||[[[[:1[||:1[||[|1$  -..  @..... @....",
"@@@@@@@@@@@@@@@@-  $[|[:[|[|[|1:[[[|:[[||[|[$-  @@@@@@@@@@@@@@@@",
"+@+.+@++++++@+++=- $[|1:[[[[||1:1||[:1[[|[[1$=- ++++@+++.++@++++",
"+@+++@+++..+@+++==-$|[|@[|||[||@:|[|@:[|[|||$==-.+.+@++++++@++++",
"@@@@@@@@@@@@@@@@$$$$@::@:::::::::::@::::@@::$$$$@@@@@@@@@@@@@@@@",
"33333333$$$$$$$$$$$$$$$$$333333333333333333333333333333333333333"};
