/* XPM */
static char * floor_xpm[] = {
"64 64 7 1",
" 	c #473D25",
".	c #6A5C52",
"+	c #825B24",
"@	c #2E2E2E",
"#	c #907D50",
"$	c #928276",
"%	c #867F7F",
"  ...   ......... .++++.+++..@@   ...   ......... .++++.+++..@@ ",
" ..+++.  +++++++ .+.+.++++.+ ......+++.  +++++++ .+.+.++++.+ ...",
" +.++.+.      @@.+++...++.++ ++.++.++.+.      @@.+++...++.++ ++.",
" ...++#+ .      @#+++.++.+++ ++++...++#+ .      @#+++.++.+++ +++",
" +.++## .......  #+.#++#++$+ +.+++.++## .......  #+.#++#++$+ +.+",
" #++.% ...+++... #%###.###%# #%+.#++.% ...+++... #%###.###%# #%+",
" ###%# .+.+.+++.. #%%%%%%%# . #%####%# .+.+.+++.. #%%%%%%%# . #%",
" %%%# ..++++.++++. ####### ... #%%%%# ..++++.++++. ####### ... #",
" ### ..++.++++.##..    @@ .++.. #### ..++.++++.##..    @@ .++.. ",
"    .+#+...+####%+ .... @ ++.+..@   .+#+...+####%+ .... @ ++.+..",
" ...  #%%#%%%%%%# ..++#.  #%+%# ....  #%%#%%%%%%# ..++#.  #%+%# ",
" +.... ######### .++#.# .. #%# ..+.... ######### .++#.# .. #%# .",
" +.++..@@       ..+.#% .... #@..++.++..@@       ..+.#% .... #@..",
" ...+++@... ..   ##%% ..++..@@+++...+++@... ..   ##%% ..++..@@++",
" +.++++ .++++++..  @@..+.++..@+.++.++++ .++++++..  @@..+.++..@+.",
" +#+.+# ++.+.++++...@++++.++. +#++#+.+# ++.+.++++...@++++.++. +#",
" .%#+#% #++++++.++++ +.+++.++. %#.%#+#% #++++++.++++ +.+++.++. %",
" ###%%   #+.++...+#% #%.+++%#+.@####%%   #+.++...+#% #%.+++%#+.@",
" %%%# .. %#+##+.##%#@##%%+%#  @@%%%%# .. %#+##+.##%#@##%%+%#  @@",
" +   .++ #%%%%%%%%#@@@  #%# .... +   .++ #%%%%%%%%#@@@  #%# ....",
"  ... #+  ######## ..... # ...... ... #+  ######## ..... # .....",
" .....         @@@..+++.. ..++.. .....         @@@..+++.. ..++..",
" ..+..  ........ @.+++.+. ++$++. ..+..  ........ @.+++.+. ++$++.",
" +++++ ..++++++.. .+.++++ +####. +++++ ..++++++.. .+.++++ +####.",
"  #++++ .++.+.++. ..++.+. +.+++.. #++++ .++.+.++. ..++.+. +.+++.",
"  %###% .+.+...+. .+.+.++ ++++.+. %###% .+.+...+. .+.+.++ ++++.+",
" . %%% ..++++.++. +++++++ #.+.++.. %%% ..++++.++. +++++++ #.+.++",
" ..@@@..++..++.+. %#+#+#% %#+++.+..@@@..++..++.+. %#+#+#% %#+++.",
" +..@..+++++++++. #%%%%%# #%+.++++..@..+++++++++. #%%%%%# #%+.++",
" +%+ ++#++++..+#+ @##### . #%+.+.+%+ ++#++++..+#+ @##### . #%+.+",
" %#   +%#%#++++##+.@    ... #%%%%%#   +%#%#++++##+.@    ... #%%%",
" #     #%#######%+ ......... #####     #%#######%+ ......... ###",
"  ...   #%%%%%%%# .++++.+++..@@   ...   #%%%%%%%# .++++.+++..@@ ",
" ..+++.  +++++++ .+.+.++++.+ ......+++.  +++++++ .+.+.++++.+ ...",
" +.++.+.      @@.+++...++.++ ++.++.++.+.      @@.+++...++.++ ++.",
" ...++#+ .      @#+++.++.+++ ++++...++#+ .      @#+++.++.+++ +++",
" +.++## .......  #+.#++#++$+ +.+++.++## .......  #+.#++#++$+ +.+",
" #++.% ...+++... #%###.###%# #%+.#++.% ...+++... #%###.###%# #%+",
" ###%# .+.+.+++.. #%%%%%%%# . #%####%# .+.+.+++.. #%%%%%%%# . #%",
" %%%# ..++++.++++. ####### ... #%%%%# ..++++.++++. ####### ... #",
" ### ..++.++++.##..    @@ .++.. #### ..++.++++.##..    @@ .++.. ",
"    .+#+...+####%+ .... @ ++.+..@   .+#+...+####%+ .... @ ++.+..",
" ...  #%%#%%%%%%# ..++#.  #%+%# ....  #%%#%%%%%%# ..++#.  #%+%# ",
" +.... ######### .++#.# .. #%# ..+.... ######### .++#.# .. #%# .",
" +.++..@@       ..+.#% .... #@..++.++..@@       ..+.#% .... #@..",
" ...+++@... ..   ##%% ..++..@@+++...+++@... ..   ##%% ..++..@@++",
" +.++++ .++++++..  @@..+.++..@+.++.++++ .++++++..  @@..+.++..@+.",
" +#+.+# ++.+.++++...@++++.++. +#++#+.+# ++.+.++++...@++++.++. +#",
" .%#+#% #++++++.++++ +.+++.++. %#.%#+#% #++++++.++++ +.+++.++. %",
" ###%%   #+.++...+#% #%.+++%#+.@####%%   #+.++...+#% #%.+++%#+.@",
" %%%# .. %#+##+.##%#@##%%+%#  @@%%%%# .. %#+##+.##%#@##%%+%#  @@",
" +   .++ #%%%%%%%%#@@@  #%# .... +   .++ #%%%%%%%%#@@@  #%# ....",
"  ... #+  ######## ..... # ...... ... #+  ######## ..... # .....",
" .....         @@@..+++.. ..++.. .....         @@@..+++.. ..++..",
" ..+..  ........ @.+++.+. ++$++. ..+..  ........ @.+++.+. ++$++.",
" +++++ ..++++++.. .+.++++ +####. +++++ ..++++++.. .+.++++ +####.",
"  #++++ .++.+.++. ..++.+. +.+++.. #++++ .++.+.++. ..++.+. +.+++.",
"  %###% .+.+...+. .+.+.++ ++++.+. %###% .+.+...+. .+.+.++ ++++.+",
" . %%% ..++++.++. +++++++ #.+.++.. %%% ..++++.++. +++++++ #.+.++",
" ..@@@..++..++.+. %#+#+#% %#+++.+..@@@..++..++.+. %#+#+#% %#+++.",
" +..@..+++++++++. #%%%%%# #%+.++++..@..+++++++++. #%%%%%# #%+.++",
" +%+ ++#++++..+#+ @##### . #%+.+.+%+ ++#++++..+#+ @##### . #%+.+",
" %#   +%#%#++++##+.@    ... #%%%%%#   +%#%#++++##+.@    ... #%%%",
" #     #%#######%+ ......... #####     #%#######%+ ......... ###"};
