/* XPM */
static char * chairpng_xpm[] = {
"32 32 12 1",
" 	c None",
".	c #3E0E0E",
"+	c #887424",
"@	c #8D7927",
"#	c #694B1B",
"$	c #6E581B",
"%	c #725C1E",
"&	c #4E2813",
"*	c #553F14",
"=	c #584215",
"-	c #462514",
";	c #5B341C",
"        ..+++++++@++++++..      ",
"       .+++++++++++++++++@.     ",
"      .+++##############+++.    ",
"      .+##$$$$%$$$$$$%$$##+.    ",
"     .+#$$$$$$$$$$$$$$$$$$#+.   ",
"     .#$$$%$$$$%$$$$$$%$$%%#.   ",
"     .$$%$%$$$$$$%%$$$$$$$$$.   ",
"     .$$$$%%%$$$$$$$$$$$%$$$.   ",
"     .$%$$$$$$$$$$$%$$$$$$$$.   ",
"     .$$$$$$$$$$$$$$$$$$$$$$.   ",
"     .$%$$$%$$$$$$$$$%%$$$$$.   ",
"     .%$$$$$$$$$$$$$$$%$$$$%.   ",
"   ..&&$$%$%$%$$$$$$$$%$$$$&&.. ",
"  .++++&%$$$$$$$$$$$$$$$$%&+++@.",
" .++@+@+&$$%$$$%$$$$%$$$$&++++++",
" .++++++&*&&&&&&&&&&&&&&*&++++@@",
" .@+++@+&&@+++++@+++++++&&++++++",
" .@####+&@+++++++++++++++&+####+",
" .#$$%$#&@++++@++++++++++&#$$$$#",
" .%$$$$$&++++++++++++++++&$$$$$$",
" .$$%$%$&++++@+++++++@++@&$$$$$$",
"  .$$%%%&++++++++++@+++++&$$$$$$",
"  .$%%$$&+++++++++@++++++&%%$$$.",
"  .$$$$$&##@+++++++++++##&$$$$$.",
"  .%$$%$&$$############%$&$%%$%.",
"  .$$$$$&$$$$$$$$$$$$$$$$&$$$$$.",
"  .***=*&=*$$$%$$$%$$$%**&*****.",
"   .....-..*****=******..=..... ",
"    .--..  ............  ..--.  ",
"    .;;.                  .;;.  ",
"     ..                    ..   ",
"                                "};
