/* XPM */
static char * wall_xpm[] = {
"64 64 6 1",
" 	c #3E3337",
".	c #68534E",
"+	c #817971",
"@	c #534639",
"#	c #27191F",
"$	c #FFFFFF",
"      ...... +.@@..+ ....... +..@@.+ ....... +.@@..+ ....... +..",
".    ...@... ......+ ...@... ......+ ...@... ......+ ...@... ...",
"....  ......#.......# ...... .......# ......#.......# ...... ...",
"    #       ##  #           # #     #       ##  #           # # ",
" ++.+.++ +++.+++ ++.+  +#+++.+++ ++.+.++ +++.+++ ++.+  +#+++.+++",
" +.....+ +.....+ +.....+ +.....+ +.....+ +.....+ +.....+ +.....+",
" +...@.+ +.....+ +.....+#+.....+ +...@.+ +.....+ +.....+#+.....+",
" ....... +.....+ ..@@... +.....+ ....... +.....+ ..@@... +.....+",
"#......+ ....... ...@..+ .......#......+ ....... ...@..+ .......",
"#......+#+.....+#......+ +.....+#......+#+.....+#......+ +.....+",
" .......# ...... .......# ...... .......# ...... .......# ......",
"       ##      #       ##   ####       ##      #       ##   ####",
"+.++#++.+.++#++++.++ ++.+.++#++++.++#++.+.++#++++.++ ++.+.++#+++",
"...+ +.....+ +.....+ +.....+#+.....+ +.....+ +.....+ +.....+#+..",
"@@.+ ......+ ......+ ......+ ...@@.+ ......+ ......+ ......+ ...",
"@@.. +.....+ +@@.... +.....+ +..@@.. +.....+ +@@.... +.....+ +..",
" ..+ ...@... +.@...+#....... +.....+ ...@... +.@...+#....... +..",
"...+ ....... ......+ ....@.. ......+ ....... ......+ ....@.. ...",
"....# ...... .......# ......#.......# ...... .......# ......#...",
"    #      #               ### #    #      #               ### #",
"#++.+.++#+++.+++#++.+.++#+++.+++#++.+.++#+++.+++#++.+.++#+++.+++",
" +.....+ +.....+ +.....+ +.....+ +.....+ +.....+ +.....+ +.....+",
" +.....+ +.....+ +...@.+ +.....+ +.....+ +.....+ +...@.+ +.....+",
" ...@@.. +...@.+ ....... +.....+ ...@@.. +...@.+ ....... +.....+",
" ....@.+ ....@.. ..@...+ ....... ....@.+ ....@.. ..@...+ .......",
" .@....+ +.....+ ......+#+.....+ .@....+ +.....+ ......+#+.....+",
"#.......# ......#.......# ......#.......# ......#.......# ......",
"#           ##          #    #  #           ##          #    #  ",
"+.++#++.+.++ ++++.++ ++.+.++#++++.++#++.+.++ ++++.++ ++.+.++#+++",
"...+ +.....+ +.....+ +.....+#+.....+ +.....+ +.....+ +.....+#+..",
"@..+ ......+ ......+ ......+ ...@..+ ......+ ......+ ......+ ...",
".... +..@..+ +...... +.....+ +...... +..@..+ +...... +.....+ +..",
"@@.+ ....... +.@@..+ ....... +..@@.+ ....... +.@@..+ ....... +..",
"...+ ...@... ......+ ...@... ......+ ...@... ......+ ...@... ...",
" ...  ......#.......# ...... .......# ......#.......# ...... ...",
"            ##  #           # #     #       ##  #           # # ",
"     .++ +++.+++ ++.+  +#+++.+++ ++.+.++ +++.+++ ++.+  +#+++.+++",
"$    ..+ +.....+ +.....+ +.....+ +.....+ +.....+ +.....+ +.....+",
"    .@.+ +.....+ +.....+#+.....+ +...@.+ +.....+ +.....+#+.....+",
"   ..... +.....+ ..@@... +.....+ ....... +.....+ ..@@... +.....+",
"  .....+ ....... ...@..+ .......#......+ ....... ...@..+ .......",
" ......+#+.....+#......+ +.....+#......+#+.....+#......+ +.....+",
" .......# ...... .......# ...... .......# ...... .......# ......",
"       ##      #       ##   ####       ##      #       ##   ####",
"  ++#++.+.++#++++.++ ++.+.++#++++.++#++.+.++#++++.++ ++.+.++#+++",
" ..+ +.....+ +.....+ +.....+#+.....+ +.....+ +.....+ +.....+#+..",
" @.+ ......+ ......+ ......+ ...@@.+ ......+ ......+ ......+ ...",
" @.. +.....+ +@@.... +.....+ +..@@.. +.....+ +@@.... +.....+ +..",
"...+ ...@... +.@...+#....... +.....+ ...@...# ++...+#....... +..",
"...+ ....... ......+ ....@.. ......+ ...... ##+####+ ....@.. ...",
"....# ...... .......# ......#.......# ....  # #    ##.......#...",
"    #      #               ### #    #    ###  ###   ##     ### #",
"#++.+.++#+++.+++#++.+.++#+++.+++#++.+.++#  ###$$$## # #+#+++.+++",
" +.....+ +.....+ +.....+ +.....+ ......+# #$$$## $$$#  # +.....+",
" +.....+ +.....+ +...@.+ +.....  ......#  $$$  # ##$##  # .....+",
" ...@@.. +...@.+ ....... +...          # #$$##....##$$   ### ..+",
" ....@.+ ....@.. ..@...+ .... ###@@@@@####$$# #....#$$$##$.#@...",
" .@....+ +.....+ ......+#+...#### ##   $$$$$#  #  . $$$$$$$# ..+",
"#.......# ......#.......# ...$$$$$$$$$$$$$$$#   ##  $$$$$$$$$...",
"#           ##          #    $$$$$$$$$$$$$$$$####  $$$$$$$$$$#  ",
"+.++#++.+.++ ++++.++ ++.+.++#++++.++#++.+.++ ++++.++ ++.+.++#+++",
"...+ +.....+ +.....+ +.....+#+.....+ +.....+ +.....+ +.....+#+..",
"@..+ ......+ ......+ ......+ ...@..+ ......+ ......+ ......+ ...",
".... +..@..+ +...... +.....+ +...... +..@..+ +...... +.....+ +.."};
